X:10
T:The House Of David Blues
C:Snuffy Jenkins
N:"Crazy Water Barn Dance" Rounder 0059 Transcribed by John Baldry in "Bluegrass and Old-Time Mandolin" Tabledited by Mike Stangeland
L:1/8
Q:1/4=236
M:4/4
K:A
[c4A4] [c2A2] [cA][cA] | [c2A2] [c2A2] [c2A2] AA | "A"AA cc AA FF | EE GG "F#m"FF EE | 
"B"CE Ef "E"fe cB | "A"A2 [A2F2] [A2F2] FF | AA cc AA FF | EE GF "F#m"FE EE | 
"B"CC EE A2 [e2c2] | "E"[e2B2] [eB][eB] [eB]e fe | "A"a2 f2 e=c ^ce | "A7"fe =c^c AA AA | 
"D"D2 F2 A2 BB | "D7"=cB cB A2 [eA][eA] | "A"AA cc AA FF | EE GG "F#m"FF EE | 
"B"CE EE "E"cE EE | "A"A2 [e2A2] [e2A2] AA | "A"[e=c]^c [ec][ec] [ec][ec] [ec][ec] | 
[e=c]^c [ec][ec] "F#m"[ec][ec] [ec][ec] | "B"[ec][eB] [eA][ec] "E"[eB][eA] [BG][eB] | 
"A"[e2A2] [eA][eA] [eA][eA] [eA][eA] | [e=c]^c [ec][ec] [ec][ec] [ec][ec] | [ac][ac] z[ac] [a2c2] [a2c2] | 
"B"[b2^d2] [bd][bd] [bd][bd] [bd][bd] | "E"[g2e2] [ge][ge] [ge][ge] [ge]g | "A"aa aa aa aa | 
"A7"=c'a aa ec cc | "D"[f2d2] [f2d2] [fd][f2d2][f=c] | "D7"z[f=c] z[fc] [fc][fc] [fc][fc] | 
"A"aa aa aa aa | g2 =g2 "F#m"f2 ff | "B"Bc dB "E"EF GA | "A"A2 [eA][eA] [eA][eA] [eA][eA] | 
z8 | 


